!!!COM: Martinů, Bohuslav (Jan)
!!!OTL: [T493_Mau-w58p20m88-94]
**kern	**dynam	**kern	**dynam	**kern	**dynam	**kern	**dynam	**kern	**dynam	**kern	**dynam	**kern	**dynam	**kern	**dynam	**kern	**dynam	**kern	**dynam	**kern	**dynam	**kern	**dynam	**kern	**dynam	**kern	**dynam	**kern	**dynam	**kern	**dynam	**kern	**dynam	**kern	**dynam	**kern	**dynam	**kern	**dynam	**kern	**dynam
*grp:A	*grp:A	*grp:A	*grp:A	*grp:A	*grp:A	*grp:A	*grp:A	*grp:A	*grp:A	*grp:B	*grp:B	*grp:A	*grp:A	*grp:A	*grp:A	*grp:A	*grp:A	*grp:A	*grp:A	*grp:A	*grp:A	*grp:A	*grp:A	*grp:A	*grp:A	*grp:A	*grp:A	*grp:A	*grp:A	*grp:A	*grp:A	*grp:A	*grp:A	*grp:A	*grp:A	*grp:A	*grp:A	*grp:A	*grp:A	*grp:A	*grp:A
*part21	*part21	*part20	*part20	*part19	*part19	*part18	*part18	*part17	*part17	*part16	*	*part15	*part15	*part14	*part14	*part13	*part13	*part12	*part12	*part11	*part11	*part10	*part10	*part9	*part9	*part8	*part8	*part7	*	*part6	*	*part5	*part5	*part4	*part4	*part3	*part3	*part2	*part2	*part1	*part1
*staff21	*	*staff20	*	*staff19	*	*staff18	*	*staff17	*	*staff16	*	*staff15	*	*staff14	*	*staff13	*	*staff12	*	*staff11	*	*staff10	*	*staff9	*	*staff8	*	*staff7	*	*staff6	*	*staff5	*	*staff4	*	*staff3	*	*staff2	*	*staff1	*
*I"Contrabass	*	*I"Violoncello	*	*I"Viola	*	*I"Violin II	*	*I"Violin I	*	*I"Violin Solo	*	*I"Snare Drum	*	*I"Timpani	*	*I"Trombone 2	*	*I"Trombone 1	*	*I"Horn in F 4	*	*I"Horn in F 3	*	*I"Horn in F 2	*	*I"Horn in F 1	*	*I"Bassoon 2	*	*I"Bassoon 1	*	*I"Clarinet in Bb 2	*	*I"Clarinet in Bb 1	*	*I"Oboe 2	*	*I"Oboe 1	*	*I"Flute 1 + 2	*
*I'Cb.	*	*I'Vc.	*	*I'Vla.	*	*I'Vln. II	*	*I'Vln. I	*	*I'Vln. Solo	*	*I'S. D.	*	*I'Timp.	*	*I'Tbn.	*	*I'Tbn.	*	*I'Hn.	*	*I'Hn.	*	*I'Hn.	*	*I'Hn.	*	*I'Bsn.	*	*I'Bsn.	*	*I'Cl.	*	*I'Cl.	*	*I'Ob.	*	*I'Ob.	*	*I'Fl.	*
*	*	*	*	*	*	*	*	*	*	*	*	*stria1	*	*	*	*	*	*	*	*	*	*	*	*	*	*	*	*	*	*	*	*	*	*	*	*	*	*	*	*	*
*clefF4	*	*clefF4	*	*clefC3	*	*clefG2	*	*clefG2	*	*clefG2	*	*clefX	*	*clefF4	*	*clefF4	*	*clefF4	*	*clefG2	*	*clefG2	*	*clefG2	*	*clefG2	*	*clefF4	*	*clefF4	*	*clefG2	*	*clefG2	*	*clefG2	*	*clefG2	*	*clefG2	*
*ITrd7c12	*	*	*	*	*	*	*	*	*	*	*	*	*	*	*	*	*	*	*	*ITrd4c7	*	*ITrd4c7	*	*ITrd4c7	*	*ITrd4c7	*	*	*	*	*	*ITrd1c2	*	*ITrd1c2	*	*	*	*	*	*	*
*k[]	*	*k[]	*	*k[]	*	*k[]	*	*k[]	*	*k[]	*	*k[]	*	*k[]	*	*k[]	*	*k[]	*	*k[b-]	*	*k[b-]	*	*k[b-]	*	*k[b-]	*	*k[]	*	*k[]	*	*k[]	*	*k[]	*	*k[]	*	*k[]	*	*k[]	*
*C:	*	*C:	*	*C:	*	*C:	*	*C:	*	*C:	*	*C:	*	*C:	*	*C:	*	*C:	*	*F:	*	*F:	*	*F:	*	*F:	*	*C:	*	*C:	*	*C:	*	*C:	*	*C:	*	*C:	*	*C:	*
*M3/8	*	*M3/8	*	*M3/8	*	*M3/8	*	*M3/8	*	*M3/8	*	*M3/8	*	*M3/8	*	*M3/8	*	*M3/8	*	*M3/8	*	*M3/8	*	*M3/8	*	*M3/8	*	*M3/8	*	*M3/8	*	*M3/8	*	*M3/8	*	*M3/8	*	*M3/8	*	*M3/8	*
=88	=88	=88	=88	=88	=88	=88	=88	=88	=88	=88	=88	=88	=88	=88	=88	=88	=88	=88	=88	=88	=88	=88	=88	=88	=88	=88	=88	=88	=88	=88	=88	=88	=88	=88	=88	=88	=88	=88	=88	=88	=88
!	!	!	!	!	!	!	!	!	!	!	!	!	!	!	!	!	!	!	!	!	!	!	!	!	!	!	!	!	!	!	!	!	!	!	!	!	!	!	!	!LO:TX:B:t=[Vivo [quarter-dot] = 70]	!
!	!	!	!	!	!	!	!	!	!	!LO:TX:t=P:problem:Hanging slur not implemented yet	!LO:DY:ed=brack	!	!	!	!	!	!	!	!	!	!	!	!	!	!	!	!	!	!	!	!	!	!	!	!	!	!	!	!	!	!
8r	.	8r	.	8r	.	8r	.	8r	.	8ee-X')	p	8%3r	.	8%3r	.	8%3r	.	8%3r	.	8%3r	.	8%3r	.	8%3r	.	8%3r	.	8%3r	.	8%3r	.	8r	.	8r	.	8r	.	8r	.	8r	.
!LO:TX:a:t=arco	!	!LO:TX:a:t=[ pizz. ]	!	!LO:TX:a:t=[ pizz. ]	!	!LO:TX:a:t=[ pizz. ]	!	!LO:TX:a:t=[ pizz. ]	!	!	!	!	!	!	!	!	!	!	!	!	!	!	!	!	!	!	!	!	!	!	!	!	!	!	!	!	!	!	!	!	!
8EE-X'^	f	8EE-X'^: 8BB-X: 8Gn:	f	8G'^: 8en: 8cc:	f	8c'^: 8g: 8een:	f	8en'^: 8cc: 8gg:	f	8r	.	.	.	.	.	.	.	.	.	.	.	.	.	.	.	.	.	.	.	.	.	(16d-XLL	p	8r	.	8cc'^	p	8een'^	p	8gg'^	p
.	.	.	.	.	.	.	.	.	.	.	.	.	.	.	.	.	.	.	.	.	.	.	.	.	.	.	.	.	.	.	.	16e-J	.	.	.	.	.	.	.	.	.
8r	.	8r	.	8r	.	8r	.	8r	.	16ff-X'LL	.	.	.	.	.	.	.	.	.	.	.	.	.	.	.	.	.	.	.	.	.	8d-'J)	.	(16d-XLL	p	8r	.	8r	.	8r	.
.	.	.	.	.	.	.	.	.	.	16ee-'JJ	.	.	.	.	.	.	.	.	.	.	.	.	.	.	.	.	.	.	.	.	.	.	.	16e-JJ	.	.	.	.	.	.	.
=89	=89	=89	=89	=89	=89	=89	=89	=89	=89	=89	=89	=89	=89	=89	=89	=89	=89	=89	=89	=89	=89	=89	=89	=89	=89	=89	=89	=89	=89	=89	=89	=89	=89	=89	=89	=89	=89	=89	=89	=89	=89
!LO:TX:a:t=pizz.	!	!LO:TX:a:t=pizz.	!	!	!	!	!	!	!	!	!	!	!	!	!	!	!	!	!	!	!	!	!	!	!	!	!	!	!	!	!	!	!	!	!	!	!	!	!	!	!
8EE-X'^	p	8E-X'^	p	8E-X' 8d-X	p	8G' 8e-X	p	8c' 8en	p	16ee-X'LL	.	8r	.	8%3r	.	8%3r	.	8%3r	.	8%3r	.	8%3r	.	8%3r	.	8%3r	.	8%3r	.	8%3r	.	8r	.	8d-X')	.	8cc'	.	8ee'	.	8gg'	.
.	.	.	.	.	.	.	.	.	.	(16dd'J	.	.	.	.	.	.	.	.	.	.	.	.	.	.	.	.	.	.	.	.	.	.	.	.	.	.	.	.	.	.	.
8r	.	8r	.	8r	.	8r	.	8r	.	8dd')	.	16Re\LL	pp	.	.	.	.	.	.	.	.	.	.	.	.	.	.	.	.	.	.	(16e-LL	.	8r	.	8r	.	8r	.	8r	.
.	.	.	.	.	.	.	.	.	.	.	.	16Re\J	.	.	.	.	.	.	.	.	.	.	.	.	.	.	.	.	.	.	.	16f-XJ	.	.	.	.	.	.	.	.	.
8r	.	8r	.	8r	.	8r	.	8r	.	(8ffnJ	.	8Re'\J	.	.	.	.	.	.	.	.	.	.	.	.	.	.	.	.	.	.	.	8e-'J)	.	(16e-LL	.	8r	.	8r	.	8r	.
.	.	.	.	.	.	.	.	.	.	.	.	.	.	.	.	.	.	.	.	.	.	.	.	.	.	.	.	.	.	.	.	.	.	16f-XJJ	.	.	.	.	.	.	.
=90	=90	=90	=90	=90	=90	=90	=90	=90	=90	=90	=90	=90	=90	=90	=90	=90	=90	=90	=90	=90	=90	=90	=90	=90	=90	=90	=90	=90	=90	=90	=90	=90	=90	=90	=90	=90	=90	=90	=90	=90	=90
8EE-X'^	.	8E-X'^	.	8E-X' 8d-X	.	8G' 8e-X	.	8c' 8en	.	8dd-X)	.	8r	.	8%3r	.	8%3r	.	8%3r	.	8%3r	.	8%3r	.	8%3r	.	8%3r	.	8%3r	.	8%3r	.	8r	.	8fn')	.	8cc'	.	8ee'	.	8gg'	.
8r	.	8r	.	8r	.	8r	.	8r	.	(16ff-XLL	.	16Re\LL	.	.	.	.	.	.	.	.	.	.	.	.	.	.	.	.	.	.	.	(16fLL	.	8r	.	8r	.	8r	.	8r	.
.	.	.	.	.	.	.	.	.	.	16ee-X)	.	16Re\J	.	.	.	.	.	.	.	.	.	.	.	.	.	.	.	.	.	.	.	16g-XJ	.	.	.	.	.	.	.	.	.
8r	.	8r	.	8r	.	8r	.	8r	.	16ee-'	.	8Re'\J	.	.	.	.	.	.	.	.	.	.	.	.	.	.	.	.	.	.	.	8f'J)	.	(16fLL	.	8r	.	8r	.	8r	.
.	.	.	.	.	.	.	.	.	.	16ddn'JJ	.	.	.	.	.	.	.	.	.	.	.	.	.	.	.	.	.	.	.	.	.	.	.	16g-XJJ	.	.	.	.	.	.	.
=91	=91	=91	=91	=91	=91	=91	=91	=91	=91	=91	=91	=91	=91	=91	=91	=91	=91	=91	=91	=91	=91	=91	=91	=91	=91	=91	=91	=91	=91	=91	=91	=91	=91	=91	=91	=91	=91	=91	=91	=91	=91
8EE-X'^	.	8E-X'^	.	8E-X' 8d-X	.	8G' 8e-X	.	8c' 8en	.	16dd'LL	.	8r	.	8%3r	.	8%3r	.	8%3r	.	8%3r	.	8%3r	.	8%3r	.	8%3r	.	8%3r	.	8%3r	.	8r	.	8gn')	.	8cc'	.	8ee'	.	8gg'	.
.	.	.	.	.	.	.	.	.	.	16cc#X'	.	.	.	.	.	.	.	.	.	.	.	.	.	.	.	.	.	.	.	.	.	.	.	.	.	.	.	.	.	.	.
8r	.	8r	.	8r	.	8r	.	8r	.	(16aa	.	16Re\LL	.	.	.	.	.	.	.	.	.	.	.	.	.	.	.	.	.	.	.	(16aLL	.	8r	.	8r	.	8r	.	8r	.
.	.	.	.	.	.	.	.	.	.	16aa-X)	.	16Re\J	.	.	.	.	.	.	.	.	.	.	.	.	.	.	.	.	.	.	.	16b-J	.	.	.	.	.	.	.	.	.
8r	.	8r	.	8r	.	8r	.	8r	.	(16aa-'	.	8Re'\J	.	.	.	.	.	.	.	.	.	.	.	.	.	.	.	.	.	.	.	8a'J)	.	(16aLL	.	8r	.	8r	.	8r	.
.	.	.	.	.	.	.	.	.	.	16gg'JJ)	.	.	.	.	.	.	.	.	.	.	.	.	.	.	.	.	.	.	.	.	.	.	.	16b-JJ	.	.	.	.	.	.	.
!!pagebreak:original
=92	=92	=92	=92	=92	=92	=92	=92	=92	=92	=92	=92	=92	=92	=92	=92	=92	=92	=92	=92	=92	=92	=92	=92	=92	=92	=92	=92	=92	=92	=92	=92	=92	=92	=92	=92	=92	=92	=92	=92	=92	=92
8EE-X'^	.	8E-X'^	.	8E-X' 8d-X	.	8G' 8e-X	.	8c' 8en	.	8gg'L	.	8r	.	8%3r	.	8%3r	.	8%3r	.	8%3r	.	8%3r	.	8%3r	.	8%3r	.	8%3r	.	8%3r	.	8r	.	8a')	.	8cc'	.	8ee'	.	8gg'	.
8r	.	8r	.	8r	.	8r	.	8r	.	(8bb-X'	.	16Re\LL	.	.	.	.	.	.	.	.	.	.	.	.	.	.	.	.	.	.	.	(16b-LL	.	8r	.	8r	.	8r	.	8r	.
.	.	.	.	.	.	.	.	.	.	.	.	16Re\J	.	.	.	.	.	.	.	.	.	.	.	.	.	.	.	.	.	.	.	16ccJ	.	.	.	.	.	.	.	.	.
8r	.	8r	.	8r	.	8r	.	8r	.	8ff#X'J)	.	8Re'\J	.	.	.	.	.	.	.	.	.	.	.	.	.	.	.	.	.	.	.	8b-'J)	.	(16b-LL	.	8r	.	8r	.	8r	.
.	.	.	.	.	.	.	.	.	.	.	.	.	.	.	.	.	.	.	.	.	.	.	.	.	.	.	.	.	.	.	.	.	.	16ccJJ	.	.	.	.	.	.	.
=93	=93	=93	=93	=93	=93	=93	=93	=93	=93	=93	=93	=93	=93	=93	=93	=93	=93	=93	=93	=93	=93	=93	=93	=93	=93	=93	=93	=93	=93	=93	=93	=93	=93	=93	=93	=93	=93	=93	=93	=93	=93
8EE-X'^	.	8E-X'^	.	8E-X' 8d-X	.	8G' 8e-X	.	8c' 8en	.	(16aaLL	.	8r	.	8%3r	.	8%3r	.	8%3r	.	8%3r	.	8%3r	.	8%3r	.	8%3r	.	8%3r	.	8%3r	.	8r	.	8dd-X')	.	8cc'	.	8ee'	.	8gg'	.
.	.	.	.	.	.	.	.	.	.	16aa-X)	.	.	.	.	.	.	.	.	.	.	.	.	.	.	.	.	.	.	.	.	.	.	.	.	.	.	.	.	.	.	.
8r	.	8r	.	8r	.	8r	.	8r	.	(16aa-'	.	16Re\LL	.	.	.	.	.	.	.	.	.	.	.	.	.	.	.	.	.	.	.	(16dd-XLL	.	8r	.	8r	.	8r	.	8r	.
.	.	.	.	.	.	.	.	.	.	16gg'J)	.	16Re\J	.	.	.	.	.	.	.	.	.	.	.	.	.	.	.	.	.	.	.	16ee-J	.	.	.	.	.	.	.	.	.
8r	.	8r	.	8r	.	8r	.	8r	.	8bb-X'J	.	8Re'\J	.	.	.	.	.	.	.	.	.	.	.	.	.	.	.	.	.	.	.	8dd-'J)	.	(16dd-LL	.	8r	.	8r	.	8r	.
.	.	.	.	.	.	.	.	.	.	.	.	.	.	.	.	.	.	.	.	.	.	.	.	.	.	.	.	.	.	.	.	.	.	16ee-JJ	.	.	.	.	.	.	.
=94	=94	=94	=94	=94	=94	=94	=94	=94	=94	=94	=94	=94	=94	=94	=94	=94	=94	=94	=94	=94	=94	=94	=94	=94	=94	=94	=94	=94	=94	=94	=94	=94	=94	=94	=94	=94	=94	=94	=94	=94	=94
!	!	!	!	!	!	!	!	!	!	!	!	!	!	!	!	!	!	!	!	!	!	!	!	!	!	!	!	!	!	!	!	!	!	!	!	!	!	!	!	!LO:TX:a:t=à 2	!
8EE-X'^	mf	8E-X'^	mf	8E-X' 8d-X	mf	8G' 8e-X	mf	8c' 8en	mf	16ff#X'LL	.	8%3r	.	8r	.	8E-X'	p	8c'	p	8G'	p	8e-X'	p	8c#X'	p	8en'	p	8E-X'	.	8E-X'	.	8r	.	8eenX')	.	8cc'	.	8ee'	.	8bb-X'	.
.	.	.	.	.	.	.	.	.	.	16gg'	.	.	.	.	.	.	.	.	.	.	.	.	.	.	.	.	.	.	.	.	.	.	.	.	.	.	.	.	.	.	.
8r	.	8r	.	8r	.	8r	.	8r	.	(16eee-X	<	.	.	16CLL	p	8r	.	8r	.	8r	.	8r	.	8r	.	8r	.	8r	.	8r	.	(16dd#XLL	.	8r	.	8r	.	8r	.	8r	.
.	.	.	.	.	.	.	.	.	.	16ddd)	.	.	.	16CJ	.	.	.	.	.	.	.	.	.	.	.	.	.	.	.	.	.	16eeJ	.	.	.	.	.	.	.	.	.
!	!	!	!	!	!	!	!	!	!	!	!	!	!	!	!	!	!	!	!	!	!	!	!	!	!	!	!	!	!	!	!	!	!	!LO:TX:t=P:problem:Hanging slur not implemented yet	!	!	!	!	!	!	!
8r	.	8r	.	8r	.	8r	.	8r	.	16ddd'	.	.	.	8C'J	.	8r	.	8r	.	8r	.	8r	.	8r	.	8r	.	8r	.	8r	.	8dd#'J)	.	(16dd#XLL	.	8r	.	8r	.	8r	.
.	.	.	.	.	.	.	.	.	.	16ccc#X'JJ	.	.	.	.	.	.	.	.	.	.	.	.	.	.	.	.	.	.	.	.	.	.	.	16eeJJ	.	.	.	.	.	.	.
=||	=||	=||	=||	=||	=||	=||	=||	=||	=||	=||	=||	=||	=||	=||	=||	=||	=||	=||	=||	=||	=||	=||	=||	=||	=||	=||	=||	=||	=||	=||	=||	=||	=||	=||	=||	=||	=||	=||	=||	=||	=||
*-	*-	*-	*-	*-	*-	*-	*-	*-	*-	*-	*-	*-	*-	*-	*-	*-	*-	*-	*-	*-	*-	*-	*-	*-	*-	*-	*-	*-	*-	*-	*-	*-	*-	*-	*-	*-	*-	*-	*-	*-	*-
!!!system-decoration: [(s1,s2,s3,s4,s5,s6,s7)][(s8,s9,s10,s11,s12,s13)][(s14,s15)](s16)[(s17,s18,s19,s20,s21)]
!!!EED: Daniel Wright
!!!EEV: 2021/08/05
!!!EED2: Rafael Laurindo
!!!EEV2: 2022/02/06
